X:390
T:Lads of Foss, The
R:Reel
B:The Athole Collection
M:C|
L:1/8
K:D
A|FA A/A/A B2AB|dBAF GEEG|FA A/A/A B2 Ag|fdef d/d/d d:|
g|f2df aeeg|f2df ecAg|f2df aeeg|fdef d/d/d dg|f2df aeeg|f2df ecAg|
fefg aeeg|fdef d/d/d d||

